svg/head_sync_outline.svg

<svg xmlns="http://www.w3.org/2000/svg" viewBox="0 0 24 24"><path d="M13 3c3.88 0 7 3.14 7 7 0 2.8-1.63 5.19-4 6.31V21H9v-3H8c-1.11 0-2-.89-2-2v-3H4.5c-.42 0-.66-.5-.42-.81L6 9.66A7.003 7.003 0 0 1 13 3m0-2C8.41 1 4.61 4.42 4.06 8.9L2.5 11h-.03l-.02.03c-.55.76-.62 1.76-.19 2.59.36.69 1 1.17 1.74 1.32V16c0 1.85 1.28 3.42 3 3.87V23h11v-5.5c2.5-1.67 4-4.44 4-7.5 0-4.97-4.04-9-9-9m1 14v-1.5c-2.21 0-4-1.79-4-4 0-.82.25-1.58.67-2.21l1.09 1.09c-.17.34-.26.72-.26 1.12A2.5 2.5 0 0 0 14 12v-1.5l2.25 2.25zm3.33-3.29-1.09-1.09c.17-.34.26-.72.26-1.12A2.5 2.5 0 0 0 14 7v1.5l-2.25-2.25L14 4v1.5c2.21 0 4 1.79 4 4 0 .82-.25 1.58-.67 2.21"/></svg>

<?xml version="1.0" encoding="UTF-8"?><!DOCTYPE svg PUBLIC "-//W3C//DTD SVG 1.1//EN" "http://www.w3.org/Graphics/SVG/1.1/DTD/svg11.dtd"><svg xmlns="http://www.w3.org/2000/svg" xmlns:xlink="http://www.w3.org/1999/xlink" version="1.1" id="mdi-head-sync-outline" width="24" height="24" viewBox="0 0 24 24"><path d="M13 3C16.88 3 20 6.14 20 10C20 12.8 18.37 15.19 16 16.31V21H9V18H8C6.89 18 6 17.11 6 16V13H4.5C4.08 13 3.84 12.5 4.08 12.19L6 9.66C6.19 5.95 9.23 3 13 3M13 1C8.41 1 4.61 4.42 4.06 8.9L2.5 11L2.47 11L2.45 11.03C1.9 11.79 1.83 12.79 2.26 13.62C2.62 14.31 3.26 14.79 4 14.94V16C4 17.85 5.28 19.42 7 19.87V23H18V17.5C20.5 15.83 22 13.06 22 10C22 5.03 17.96 1 13 1M14 15V13.5C11.79 13.5 10 11.71 10 9.5C10 8.68 10.25 7.92 10.67 7.29L11.76 8.38C11.59 8.72 11.5 9.1 11.5 9.5C11.5 10.88 12.62 12 14 12V10.5L16.25 12.75L14 15M17.33 11.71L16.24 10.62C16.41 10.28 16.5 9.9 16.5 9.5C16.5 8.12 15.38 7 14 7V8.5L11.75 6.25L14 4V5.5C16.21 5.5 18 7.29 18 9.5C18 10.32 17.75 11.08 17.33 11.71Z" /></svg>
